X:1
T:Ha Du sett te Nisse
T:Pas de Quatre ur Karl Erikssons notbok (MMD 24)
R:Schottis
O:Säby, Österåker, Södermanland
B:Karl Erikssons notbok
N:FMK MMD 24-16
N:Variant av Mössens Julafton, jmf med +.
M:2/4
L:1/16
K:G
Q:80
D>GBA G2G2|GBdc B4|A>BcA F2FA|GABG D4|
D>GBA G2G2|GBdc B4|A>BcA FDEF|G2G2G2z2:|
|:[Ge]3[Ec] [Ge]2[Ge]2|dBGB d4|cBAG FDEF|GFGB d2cd|
[Ge]3[Ec] [Ge]2[Ge]2|dBGB d4|cBAG FDEF|G2G2G2z2:|

